X:1
T:Lilting Banshee
M:6/8
R:Jig
K:Ador
"Am"EAA EAA|"G"BAB G2A|"Em"Bee "G"edB|"Em"dBA "G"GED|
"Am"EAA EAA|"G"BAB G2A|"Em"Bee edB|"G"BAG "Am"A3:|
|:"Am"eaa age|"G"dBA G2A|"Em"Bee edB|"G"def gfg|
"Am"a3 {b}age|"G"eBA G2A|"Em"Bee edB|"G"BAG "Am"A3:|
